static/ua_people.svg

<svg viewBox="0 0 460 510" xmlns="http://www.w3.org/2000/svg" xml:space="preserve" style="fill-rule:evenodd;clip-rule:evenodd;stroke-linejoin:round;stroke-miterlimit:2"><path d="M2260.22 1492.36c0-133.53-108.25-241.78-241.78-241.78s-241.78 108.25-241.78 241.78h483.56Z" style="fill:#a3dfa4" transform="matrix(.37514 0 0 .84839 -391.6485808 -940.79065657)"/><path d="M2260.22 1495.9c4.42 0 8-1.58 8-3.54 0-80.87-39.55-152.54-100.14-196.96-41.77-30.61-93.88-48.35-149.64-48.35-55.76 0-107.86 17.74-149.64 48.35-60.58 44.42-100.13 116.09-100.13 196.96 0 1.96 3.58 3.54 7.99 3.54h483.56Zm-8.02-7.07h-467.52c1.13-77.92 39.25-146.84 97.82-189.77 38.25-28.04 84.88-44.94 135.94-44.94 51.07 0 97.69 16.9 135.95 44.94 58.56 42.93 96.69 111.85 97.81 189.77Z" style="fill:#c3c3c3" transform="matrix(.37514 0 0 .84839 -391.6485808 -940.79065657)"/><circle cx="2023.65" cy="1190.13" r="94.059" style="fill:#f8cca8" transform="matrix(.62554 0 0 .62555 -900.32296206 -657.00560547)"/><path d="M1930.38 1202.08c-.53-3.91-.79-7.9-.79-11.95 0-51.91 42.15-94.06 94.06-94.06 51.91 0 94.06 42.15 94.06 94.06 0 4.05-.26 8.04-.78 11.95-5.85-46.28-45.42-82.11-93.28-82.11s-87.42 35.83-93.27 82.11Z" style="fill:#6c5ff1" transform="matrix(.62554 0 0 .62555 -900.32370563 -668.24263146)"/><circle cx="2153.19" cy="986.616" r="16.795" style="fill:#6c5ff1" transform="matrix(.74737 0 0 .74737 -1243.67875807 -724.81886)"/><g><path d="M2260.22 1492.36c0-133.53-108.25-241.78-241.78-241.78s-241.78 108.25-241.78 241.78h483.56Z" style="fill:#fcfb59" transform="matrix(.39364 0 0 .89022 -696.36611493 -958.5549334)"/><path d="M2260.22 1495.73c4.21 0 7.63-1.51 7.63-3.37 0-80.84-39.53-152.48-100.09-196.87-41.69-30.56-93.67-48.28-149.32-48.28-55.65 0-107.63 17.72-149.32 48.28-60.55 44.39-100.08 116.03-100.08 196.87 0 1.86 3.41 3.37 7.62 3.37h483.56Zm-7.64-6.74h-468.27c1.07-78.01 39.23-147.04 97.87-190.02 38.33-28.1 85.09-45.02 136.26-45.02 51.18 0 97.93 16.92 136.27 45.02 58.63 42.98 96.8 112.01 97.87 190.02Z" style="fill:#c3c3c3" transform="matrix(.39364 0 0 .89022 -696.36611493 -958.5549334)"/><circle cx="2023.65" cy="1190.13" r="94.059" style="fill:#dd8a47" transform="matrix(.65639 0 0 .6564 -1230.12325536 -660.77642724)"/><path d="M1920.49 1273.25c-.52-3.91-.78-74.72-.78-78.77 0-51.91 52.03-98.41 103.94-98.41s106.32 47.69 106.32 99.6c0 4.05-11.33 68.53-11.86 72.44-5.85-46.28-46.6-148.14-94.46-148.14-47.86 0-97.31 107-103.16 153.28Z" style="fill:#161525" transform="matrix(.62554 0 0 .62555 -1167.70315918 -636.33316084)"/><circle cx="2153.19" cy="986.616" r="16.795" style="fill:#161525" transform="matrix(.74737 0 0 .74737 -1511.05815078 -692.90937935)"/></g><g><path d="M2260.22 1492.36c0-133.53-108.25-241.78-241.78-241.78s-241.78 108.25-241.78 241.78h483.56Z" style="fill:#920d0d" transform="matrix(.50195 0 0 1.13516 -768.43694464 -1187.21203706)"/><path d="M2260.22 1495.01c3.31 0 5.98-1.19 5.98-2.65 0-80.68-39.4-152.19-99.85-196.49-41.32-30.3-92.74-47.93-147.91-47.93-55.16 0-106.58 17.63-147.91 47.93-60.44 44.3-99.84 115.81-99.84 196.49 0 1.46 2.67 2.65 5.97 2.65h483.56Zm-5.99-5.29h-471.58c.85-78.47 39.19-147.92 98.12-191.12 38.7-28.37 86.02-45.37 137.67-45.37 51.66 0 98.98 17 137.68 45.37 58.93 43.2 97.27 112.65 98.11 191.12Z" style="fill:#c3c3c3" transform="matrix(.50195 0 0 1.13516 -768.43694464 -1187.21203706)"/><path d="M2116.93 1178.18c.52 3.91.78 7.9.78 11.95 0 51.91-42.15 94.06-94.06 94.06-51.91 0-94.06-42.15-94.06-94.06 0-4.05.26-8.04.79-11.95 5.85 46.29 45.41 82.12 93.27 82.12s87.43-35.83 93.28-82.12Z" style="fill:#f8cca8" transform="matrix(.83699 0 0 .837 -1449.05342564 -807.50197114)"/><path d="M1930.38 1178.18c5.85-46.28 45.41-82.11 93.27-82.11s87.43 35.83 93.28 82.11c-5.85 46.29-45.42 82.12-93.28 82.12s-87.42-35.83-93.27-82.12Z" style="fill:#f8cca8" transform="matrix(.83699 0 0 .837 -1449.05342564 -807.50197114)"/><path d="M1930.38 1202.08c-.53-3.91-.79-7.9-.79-11.95 0-51.91 42.15-94.06 94.06-94.06 51.91 0 94.06 42.15 94.06 94.06 0 4.05-.26 8.04-.78 11.95-5.85-46.28-45.42-82.11-93.28-82.11s-87.42 35.83-93.27 82.11Z" style="fill:#a1a19d" transform="matrix(.83699 0 0 .837 -1449.05342564 -809.5017937)"/></g></svg>

<?xml version="1.0" encoding="UTF-8" standalone="no"?>
<!DOCTYPE svg PUBLIC "-//W3C//DTD SVG 1.1//EN" "http://www.w3.org/Graphics/SVG/1.1/DTD/svg11.dtd">
<svg width="100%" height="100%" viewBox="0 0 460 510" version="1.1" xmlns="http://www.w3.org/2000/svg" xmlns:xlink="http://www.w3.org/1999/xlink" xml:space="preserve" xmlns:serif="http://www.serif.com/" style="fill-rule:evenodd;clip-rule:evenodd;stroke-linejoin:round;stroke-miterlimit:2;">
    <g transform="matrix(1,0,0,1,-2622.12,-991.175)">
        <g transform="matrix(1.6582,0,0,2.17136,2692.26,897.155)">
            <g transform="matrix(1,0,0,1,1.9868,11.8104)">
                <g transform="matrix(0.747373,0,0,0.747373,98.9681,-16.684)">
                    <g transform="matrix(0.302708,0,0,0.522789,-507.702,-515.27)">
                        <path d="M2260.22,1492.36C2260.22,1358.83 2151.97,1250.58 2018.44,1250.58C1884.91,1250.58 1776.66,1358.83 1776.66,1492.36L2260.22,1492.36Z" style="fill:rgb(163,223,164);"/>
                    </g>
                    <g transform="matrix(0.302708,0,0,0.522789,-507.702,-515.27)">
                        <path d="M2260.22,1495.9C2264.64,1495.9 2268.22,1494.32 2268.22,1492.36C2268.22,1411.49 2228.67,1339.82 2168.08,1295.4C2126.31,1264.79 2074.2,1247.05 2018.44,1247.05C1962.68,1247.05 1910.58,1264.79 1868.8,1295.4C1808.22,1339.82 1768.67,1411.49 1768.67,1492.36C1768.67,1494.32 1772.25,1495.9 1776.66,1495.9L2260.22,1495.9ZM2252.2,1488.83L1784.68,1488.83C1785.81,1410.91 1823.93,1341.99 1882.5,1299.06C1920.75,1271.02 1967.38,1254.12 2018.44,1254.12C2069.51,1254.12 2116.13,1271.02 2154.39,1299.06C2212.95,1341.99 2251.08,1410.91 2252.2,1488.83L2252.2,1488.83Z" style="fill:rgb(195,195,195);"/>
                    </g>
                    <g transform="matrix(0.504758,0,0,0.385469,-918.157,-340.398)">
                        <circle cx="2023.65" cy="1190.13" r="94.059" style="fill:rgb(248,204,168);"/>
                    </g>
                    <g transform="matrix(1,0,0,1,-52.0146,45.4986)">
                        <g transform="matrix(0.504758,0,0,0.385469,-866.143,-392.821)">
                            <path d="M1930.38,1202.08C1929.85,1198.17 1929.59,1194.18 1929.59,1190.13C1929.59,1138.22 1971.74,1096.07 2023.65,1096.07C2075.56,1096.07 2117.71,1138.22 2117.71,1190.13C2117.71,1194.18 2117.45,1198.17 2116.93,1202.08C2111.08,1155.8 2071.51,1119.97 2023.65,1119.97C1975.79,1119.97 1936.23,1155.8 1930.38,1202.08Z" style="fill:rgb(108,95,241);"/>
                        </g>
                        <g transform="matrix(0.603062,0,0,0.460542,-1143.2,-427.684)">
                            <circle cx="2153.19" cy="986.616" r="16.795" style="fill:rgb(108,95,241);"/>
                        </g>
                    </g>
                </g>
                <g transform="matrix(0.784226,0,0,0.784226,-66.0856,-5.87593)">
                    <g transform="matrix(0.302708,0,0,0.522789,-507.702,-515.27)">
                        <path d="M2260.22,1492.36C2260.22,1358.83 2151.97,1250.58 2018.44,1250.58C1884.91,1250.58 1776.66,1358.83 1776.66,1492.36L2260.22,1492.36Z" style="fill:rgb(252,251,89);"/>
                    </g>
                    <g transform="matrix(0.302708,0,0,0.522789,-507.702,-515.27)">
                        <path d="M2260.22,1495.73C2264.43,1495.73 2267.85,1494.22 2267.85,1492.36C2267.85,1411.52 2228.32,1339.88 2167.76,1295.49C2126.07,1264.93 2074.09,1247.21 2018.44,1247.21C1962.79,1247.21 1910.81,1264.93 1869.12,1295.49C1808.57,1339.88 1769.04,1411.52 1769.04,1492.36C1769.04,1494.22 1772.45,1495.73 1776.66,1495.73L2260.22,1495.73ZM2252.58,1488.99L1784.31,1488.99C1785.38,1410.98 1823.54,1341.95 1882.18,1298.97C1920.51,1270.87 1967.27,1253.95 2018.44,1253.95C2069.62,1253.95 2116.37,1270.87 2154.71,1298.97C2213.34,1341.95 2251.51,1410.98 2252.58,1488.99L2252.58,1488.99Z" style="fill:rgb(195,195,195);"/>
                    </g>
                    <g transform="matrix(0.504758,0,0,0.385469,-918.157,-340.398)">
                        <circle cx="2023.65" cy="1190.13" r="94.059" style="fill:rgb(221,138,71);"/>
                    </g>
                    <g transform="matrix(0.953007,0,0,0.953007,-44.7161,48.3176)">
                        <g transform="matrix(0.504758,0,0,0.385469,-866.143,-392.821)">
                            <path d="M1920.49,1273.25C1919.97,1269.34 1919.71,1198.53 1919.71,1194.48C1919.71,1142.57 1971.74,1096.07 2023.65,1096.07C2075.56,1096.07 2129.97,1143.76 2129.97,1195.67C2129.97,1199.72 2118.64,1264.2 2118.11,1268.11C2112.26,1221.83 2071.51,1119.97 2023.65,1119.97C1975.79,1119.97 1926.34,1226.97 1920.49,1273.25Z" style="fill:rgb(22,21,37);"/>
                        </g>
                        <g transform="matrix(0.603062,0,0,0.460542,-1143.2,-427.684)">
                            <circle cx="2153.19" cy="986.616" r="16.795" style="fill:rgb(22,21,37);"/>
                        </g>
                    </g>
                </g>
                <g>
                    <g transform="matrix(0.302708,0,0,0.522789,-507.702,-515.27)">
                        <path d="M2260.22,1492.36C2260.22,1358.83 2151.97,1250.58 2018.44,1250.58C1884.91,1250.58 1776.66,1358.83 1776.66,1492.36L2260.22,1492.36Z" style="fill:rgb(146,13,13);"/>
                    </g>
                    <g transform="matrix(0.302708,0,0,0.522789,-507.702,-515.27)">
                        <path d="M2260.22,1495.01C2263.53,1495.01 2266.2,1493.82 2266.2,1492.36C2266.2,1411.68 2226.8,1340.17 2166.35,1295.87C2125.03,1265.57 2073.61,1247.94 2018.44,1247.94C1963.28,1247.94 1911.86,1265.57 1870.53,1295.87C1810.09,1340.17 1770.69,1411.68 1770.69,1492.36C1770.69,1493.82 1773.36,1495.01 1776.66,1495.01L2260.22,1495.01ZM2254.23,1489.72C2254.23,1489.72 1837.75,1489.72 1782.65,1489.72C1783.5,1411.25 1821.84,1341.8 1880.77,1298.6C1919.47,1270.23 1966.79,1253.23 2018.44,1253.23C2070.1,1253.23 2117.42,1270.23 2156.12,1298.6C2215.05,1341.8 2253.39,1411.25 2254.23,1489.72L2254.23,1489.72Z" style="fill:rgb(195,195,195);"/>
                    </g>
                    <g transform="matrix(0.504758,0,0,0.385469,-918.157,-340.398)">
                        <path d="M2116.93,1178.18C2117.45,1182.09 2117.71,1186.08 2117.71,1190.13C2117.71,1242.04 2075.56,1284.19 2023.65,1284.19C1971.74,1284.19 1929.59,1242.04 1929.59,1190.13C1929.59,1186.08 1929.85,1182.09 1930.38,1178.18C1936.23,1224.47 1975.79,1260.3 2023.65,1260.3C2071.51,1260.3 2111.08,1224.47 2116.93,1178.18Z" style="fill:rgb(248,204,168);"/>
                    </g>
                    <g transform="matrix(0.504758,0,0,0.385469,-918.157,-340.398)">
                        <path d="M1930.38,1178.18C1936.23,1131.9 1975.79,1096.07 2023.65,1096.07C2071.51,1096.07 2111.08,1131.9 2116.93,1178.18C2111.08,1224.47 2071.51,1260.3 2023.65,1260.3C1975.79,1260.3 1936.23,1224.47 1930.38,1178.18Z" style="fill:rgb(248,204,168);"/>
                    </g>
                    <g transform="matrix(0.504758,0,0,0.385469,-918.157,-341.319)">
                        <path d="M1930.38,1202.08C1929.85,1198.17 1929.59,1194.18 1929.59,1190.13C1929.59,1138.22 1971.74,1096.07 2023.65,1096.07C2075.56,1096.07 2117.71,1138.22 2117.71,1190.13C2117.71,1194.18 2117.45,1198.17 2116.93,1202.08C2111.08,1155.8 2071.51,1119.97 2023.65,1119.97C1975.79,1119.97 1936.23,1155.8 1930.38,1202.08Z" style="fill:rgb(161,161,157);"/>
                    </g>
                </g>
            </g>
        </g>
    </g>
</svg>
